icons/arrow-square-downleftB.svg

<svg width="24" height="24" viewBox="0 0 24 24" fill="none" xmlns="http://www.w3.org/2000/svg">
<path d="M21 9V15C21 18.3 18.3 21 15 21H9C5.7 21 3 18.3 3 15V9C3 5.7 5.7 3 9 3H15C18.3 3 21 5.6 21 9Z" fill="black"/>
<path fill-rule="evenodd" clip-rule="evenodd" d="M9 3.75C6.11421 3.75 3.75 6.11421 3.75 9V15C3.75 17.8858 6.11421 20.25 9 20.25H15C17.8858 20.25 20.25 17.8858 20.25 15V9C20.25 6.02236 17.894 3.75 15 3.75H9ZM2.25 9C2.25 5.28579 5.28579 2.25 9 2.25H15C18.706 2.25 21.75 5.17764 21.75 9V15C21.75 18.7142 18.7142 21.75 15 21.75H9C5.28579 21.75 2.25 18.7142 2.25 15V9Z" fill="black"/>
<path d="M13.488 14.4675L9.95244 14.4675C9.66959 14.4675 9.45746 14.2553 9.45746 13.9725L9.45746 10.437" fill="black"/>
<path fill-rule="evenodd" clip-rule="evenodd" d="M10.2075 13.7175L10.2075 10.437C10.2075 10.0228 9.87167 9.68698 9.45746 9.68698C9.04325 9.68698 8.70746 10.0228 8.70746 10.437V13.9725C8.70746 14.6696 9.25538 15.2175 9.95244 15.2175L9.95244 14.4675L9.95244 15.2175L13.488 15.2175C13.9022 15.2175 14.238 14.8817 14.238 14.4675C14.238 14.0533 13.9022 13.7175 13.488 13.7175L10.2075 13.7175Z" fill="white"/>
<path fill-rule="evenodd" clip-rule="evenodd" d="M9.49286 14.3614C9.19997 14.0685 9.19997 13.5936 9.49286 13.3007L13.7355 9.05809C14.0284 8.7652 14.5033 8.7652 14.7962 9.05809C15.0891 9.35099 15.0891 9.82586 14.7962 10.1188L10.5535 14.3614C10.2606 14.6543 9.78576 14.6543 9.49286 14.3614Z" fill="white"/>
</svg>

<svg xmlns="http://www.w3.org/2000/svg" fill="none" viewBox="0 0 24 24">
  <path fill="#000" d="M21 9v6c0 3.3-2.7 6-6 6H9c-3.3 0-6-2.7-6-6V9c0-3.3 2.7-6 6-6h6c3.3 0 6 2.6 6 6Z"/>
  <path fill="#000" fill-rule="evenodd" d="M9 3.75C6.114 3.75 3.75 6.114 3.75 9v6c0 2.886 2.364 5.25 5.25 5.25h6c2.886 0 5.25-2.364 5.25-5.25V9c0-2.978-2.356-5.25-5.25-5.25H9ZM2.25 9c0-3.714 3.036-6.75 6.75-6.75h6c3.706 0 6.75 2.928 6.75 6.75v6c0 3.714-3.036 6.75-6.75 6.75H9c-3.714 0-6.75-3.036-6.75-6.75V9Z" clip-rule="evenodd"/>
  <path fill="#000" d="M13.488 14.467H9.952a.483.483 0 0 1-.495-.495v-3.535"/>
  <path fill="#fff" fill-rule="evenodd" d="M10.207 13.717v-3.28a.75.75 0 0 0-1.5 0v3.536c0 .697.548 1.244 1.245 1.244v-.75.75h3.536a.75.75 0 0 0 0-1.5h-3.28Z" clip-rule="evenodd"/>
  <path fill="#fff" fill-rule="evenodd" d="M9.493 14.361a.75.75 0 0 1 0-1.06l4.242-4.243a.75.75 0 0 1 1.061 1.06l-4.242 4.243a.75.75 0 0 1-1.061 0Z" clip-rule="evenodd"/>
</svg>
